lib/functional/commerce/bathtub.svg

<svg xmlns="http://www.w3.org/2000/svg" fill="none" stroke="currentColor" aria-hidden="true" viewBox="0 0 32 32"><g id="Icon-Bathtub"><g clip-path="url(#clip0_12_6953)"><g id="size=md (32px)"><g id="Bathtub"><path id="Vector" stroke-linecap="round" stroke-linejoin="round" stroke-width="2" d="M9 24V27"/><path id="Vector_2" stroke-linecap="round" stroke-linejoin="round" stroke-width="2" d="M23 24V27"/><path id="Vector_3" stroke-linecap="round" stroke-linejoin="round" stroke-width="2" d="M7 13V6.5C7 5.83696 7.26339 5.20107 7.73223 4.73223C8.20107 4.26339 8.83696 4 9.5 4C10.163 4 10.7989 4.26339 11.2678 4.73223C11.7366 5.20107 12 5.83696 12 6.5"/><path id="Vector_4" stroke-linecap="round" stroke-linejoin="round" stroke-width="2" d="M25 12H17V18H25V12Z"/><path id="Vector_5" stroke-linecap="round" stroke-linejoin="round" stroke-width="2" d="M25 13H29C29.2652 13 29.5196 13.1054 29.7071 13.2929C29.8946 13.4804 30 13.7348 30 14V18C30 19.5913 29.3679 21.1174 28.2426 22.2426C27.1174 23.3679 25.5913 24 24 24H8C6.4087 24 4.88258 23.3679 3.75736 22.2426C2.63214 21.1174 2 19.5913 2 18V14C2 13.7348 2.10536 13.4804 2.29289 13.2929C2.48043 13.1054 2.73478 13 3 13H17"/></g></g></g></g><defs><clipPath id="clip0_12_6953"><rect width="32" height="32" fill="white" rx="5"/></clipPath></defs></svg>

<svg xmlns="http://www.w3.org/2000/svg" fill="none" stroke="currentColor" aria-hidden="true" viewBox="0 0 32 32"><g stroke="#101828" stroke-linecap="round" stroke-linejoin="round" stroke-width="2" clip-path="url(#a)"><path d="M9 24v3m14-3v3M7 13V6.5a2.5 2.5 0 1 1 5 0M25 12h-8v6h8v-6Z"/><path d="M25 13h4a1 1 0 0 1 1 1v4a6 6 0 0 1-6 6H8a6 6 0 0 1-6-6v-4a1 1 0 0 1 1-1h14"/></g><defs><clipPath id="a"><rect width="32" height="32" fill="#fff" rx="5"/></clipPath></defs></svg>
